packages/elements/bolt-icon/src/svgs/transportation.svg

<svg enable-background="new 0 0 32 32" viewBox="0 0 32 32" xmlns="http://www.w3.org/2000/svg"><path clip-rule="evenodd" d="m12 6h8v-2h-8zm16 2h-24v-5c0-.5.4-1 .9-1h.1 22c.5 0 1 .4 1 .9v.1zm0 11v1h-24v-10h24zm-2 7c-1.1 0-2-.9-2-2s.9-2 2-2 2 .9 2 2-.9 2-2 2zm-3.4 0h-13.2c.3-.6.6-1.3.6-2s-.2-1.4-.6-2h13.1c-.3.6-.6 1.3-.6 2 .1.7.3 1.4.7 2zm-16.6 0c-1.1 0-2-.9-2-2s.9-2 2-2 2 .9 2 2-.9 2-2 2zm22-26h-24c-1.1 0-2 .9-2 2v22c0 1.4.7 2.7 2 3.4v3.6c0 .5.4 1 .9 1h.1c.5 0 1-.4 1-.9v-.1-3h20v3c0 .6.4 1 1 1s1-.4 1-1v-3.6c1.2-.7 2-2 2-3.4v-22c0-1.1-.9-2-2-2z" fill="#151619" fill-rule="evenodd"/></svg>

<?xml version="1.0" encoding="utf-8"?>
<!-- Generator: Adobe Illustrator 25.2.0, SVG Export Plug-In . SVG Version: 6.00 Build 0)  -->
<svg version="1.1" id="Layer_1" xmlns="http://www.w3.org/2000/svg" xmlns:xlink="http://www.w3.org/1999/xlink" x="0px" y="0px"
	 viewBox="0 0 32 32" style="enable-background:new 0 0 32 32;" xml:space="preserve">
<style type="text/css">
	.st0{fill-rule:evenodd;clip-rule:evenodd;fill:#151619;}
</style>
<path class="st0" d="M12,6h8V4h-8V6z M28,8H4V3c0-0.5,0.4-1,0.9-1C4.9,2,5,2,5,2h22c0.5,0,1,0.4,1,0.9c0,0,0,0.1,0,0.1V8z M28,19v1
	H4V10h24V19z M26,26c-1.1,0-2-0.9-2-2s0.9-2,2-2c1.1,0,2,0.9,2,2S27.1,26,26,26z M22.6,26H9.4c0.3-0.6,0.6-1.3,0.6-2
	c0-0.7-0.2-1.4-0.6-2h13.1c-0.3,0.6-0.6,1.3-0.6,2C22,24.7,22.2,25.4,22.6,26z M6,26c-1.1,0-2-0.9-2-2s0.9-2,2-2s2,0.9,2,2
	S7.1,26,6,26z M28,0H4C2.9,0,2,0.9,2,2v22c0,1.4,0.7,2.7,2,3.4V31c0,0.5,0.4,1,0.9,1c0,0,0.1,0,0.1,0c0.5,0,1-0.4,1-0.9
	c0,0,0-0.1,0-0.1v-3h20v3c0,0.6,0.4,1,1,1c0.6,0,1-0.4,1-1v-3.6c1.2-0.7,2-2,2-3.4V2C30,0.9,29.1,0,28,0z"/>
</svg>
